X:86
T:Steyrer Tanz in G, nr. 51
C:traditionell
R:Steirer
A:Hallstatt, Salzkammergut
B:Corpus Musicae Popularis Austriacae (COMPA), 5.Band: J.M.Schmalnauer " Tanz Musik", Verlag Boehlau, Wien 1996
S:manuscript des Johann Michael Schmalnauer um 1820
N:im der quelle in G
Z:abc transcription Simon Wascher
F:http://simonwascher.info/TradArchiv/
M:3/4
L:1/8
K:G
V:1
%violino 1mo
P:g:Ap:
Bddc A2 | Bddg b2 | dc' adfa | bd'bg d2 |\
Bddc A2 | Bddg b2 | dc' adfa | g4 :|
dc'adfa | bd'bg d2 | cdBdAd | BgdB G2 |\
Bddc A2 | Bddg b2 | dc'adfa | g4 :|
V:2
%violino 2do
(GB)(BA) (F2 | GB)(Bd) g2 | cafA df | gbgd B2 |\
GBBA F2 | GBBe g2 | Ba fBdf | [B4 D4] :|
AafA df | gbgd B2 | AcGBFA | GBGD B,2 |\
GBBA F2 | GBBd g2 | cafA df | [B4 D4] :|
